X: 4987
T: Brendan Sheehan's
R: jig
M: 6/8
K: Amajor
|:EFE EFA|Bcc BAF|ABB BAB|cce BAF|
EFE EFA|Bcc BAF|ABc efe|1 cBA AAF:|2 cBA Ace||
|:fff fec|efe cBA|BBB BAF|BBB Bce|
fff fec|efe cBA|BBB Bcf|ecB Aag|
fff fec|efe cBA|BBB BAF|BBB BAB|
ccA BAF|EFE EFA|Bcc efe|cBA AAF||

